docs/static/img/logo.svg

<svg height="48" viewBox="0 0 56 48" width="56" xmlns="http://www.w3.org/2000/svg"><g fill="none" fill-rule="evenodd"><path d="m55.8191698 46.0362519-13.3640686-22.6903688-6.2680749-10.6422196-7.0959937-12.04814919c-.5144093-.87336326-1.8019658-.87419119-2.3175382-.00144888l-13.3947323 22.67298227-5.47293446 9.2639222c-.51557242.8727423.12741279 1.9643687 1.15750027 1.9650932l10.33978589.0067269c.4779302.0003105.9199098-.2491036 1.1591921-.6540651l5.3739649-9.0964733.821786-1.3910268c.0324612-.0549539.0679888-.1062856.106054-.1543056.5684408-.714918 1.7294304-.6627584 2.2114843.1557545l5.5758163 9.4667651 1.0308276 1.7502453c.0590012.1002831.1021418.2033604.131748.3073692.2290259.8021612-.3800179 1.6568961-1.2918916 1.6563786l-12.1634278-.0079688c-.4780359-.0003105-.9199098.2491036-1.159192.6541686l-5.1758142 8.7609544c-.5155725.8727423.1274127 1.9643687 1.1573945 1.9650932l10.7191694.0070374 13.3661833.0085898 13.3926175.0086932c1.0301932.000621 1.674553-1.0903845 1.1601437-1.9637478" fill="#858199" fill-rule="evenodd"/><path d="m0 0h56v48h-56z"/></g></svg>

<?xml version="1.0" encoding="UTF-8"?>
<svg width="56px" height="48px" viewBox="0 0 56 48" version="1.1" xmlns="http://www.w3.org/2000/svg" xmlns:xlink="http://www.w3.org/1999/xlink">
    <g id="Assets" stroke="none" stroke-width="1" fill="none" fill-rule="evenodd">
        <g id="assets" transform="translate(-1555.000000, -2588.000000)">
            <g id="audiusLogoGlyph" transform="translate(1555.000000, 2588.000000)">
                <path d="M55.8191698,46.0362519 L42.4551012,23.3458831 L36.1870263,12.7036635 L29.0910326,0.65551431 C28.5766233,-0.217848954 27.2890668,-0.218676884 26.7734944,0.654065432 L13.3787621,23.3270477 L7.90582764,32.5909699 C7.39025522,33.4637122 8.03324043,34.5553386 9.06332791,34.5560631 L19.4031138,34.56279 C19.881044,34.5631005 20.3230236,34.3136864 20.5623059,33.9087249 L25.9362708,24.8122516 L26.7580568,23.4212248 C26.790518,23.3662709 26.8260456,23.3149392 26.8641108,23.2669192 C27.4325516,22.5520012 28.5935412,22.6041608 29.0755951,23.4226737 L34.6514114,32.8894388 L35.682239,34.6396841 C35.7412402,34.7399672 35.7843808,34.8430445 35.813987,34.9470533 C36.0430129,35.7492145 35.4339691,36.6039494 34.5220954,36.6034319 L22.3586676,36.5954631 C21.8806317,36.5951526 21.4387578,36.8445667 21.1994756,37.2496317 L16.0236614,46.0105861 C15.5080889,46.8833284 16.1510741,47.9749548 17.1810559,47.9756793 L27.9002253,47.9827167 L41.2664086,47.9913065 L54.6590261,47.9999997 C55.6892193,48.0006207 56.3335791,46.9096152 55.8191698,46.0362519" id="Audius-Logo" fill="#858199" fill-rule="evenodd"></path>
                <rect id="bound" x="0" y="0" width="56" height="48"></rect>
            </g>
        </g>
    </g>
</svg>
